Costumes/balloon1-a.svg

<?xml version="1.0" encoding="UTF-8" standalone="no"?>
<svg
   version="1.1"
   width="73.228264"
   height="137.35513"
   id="svg21"
   sodipodi:docname="balloon1-a.svg"
   xmlns:inkscape="http://www.inkscape.org/namespaces/inkscape"
   xmlns:sodipodi="http://sodipodi.sourceforge.net/DTD/sodipodi-0.dtd"
   xmlns="http://www.w3.org/2000/svg"
   xmlns:svg="http://www.w3.org/2000/svg">
  <sodipodi:namedview
     id="namedview23"
     pagecolor="#ffffff"
     bordercolor="#000000"
     borderopacity="0.25"
     inkscape:showpageshadow="2"
     inkscape:pageopacity="0.0"
     inkscape:pagecheckerboard="0"
     inkscape:deskcolor="#d1d1d1" />
  <defs
     id="defs12">
    <radialGradient
       id="grad_1"
       cx="177.05465"
       cy="91.330935"
       r="22.525126"
       gradientTransform="scale(0.46257421,2.1618153)"
       fx="177.05465"
       fy="91.330935"
       gradientUnits="userSpaceOnUse">
      <stop
         offset="0"
         stop-color="#0033CC"
         stop-opacity="1"
         id="stop2" />
      <stop
         offset="1"
         stop-color="#00FFFF"
         stop-opacity="1"
         id="stop4" />
    </radialGradient>
    <radialGradient
       id="grad_2"
       cx="528.60416"
       cy="165.71387"
       r="78.307128"
       gradientTransform="scale(0.892706,1.1201896)"
       fx="528.60416"
       fy="165.71387"
       gradientUnits="userSpaceOnUse">
      <stop
         offset="0"
         stop-color="#00FFFF"
         stop-opacity="1"
         id="stop7" />
      <stop
         offset="1"
         stop-color="#0033CC"
         stop-opacity="1"
         id="stop9" />
    </radialGradient>
  </defs>
  <!-- Exported by Scratch - http://scratch.mit.edu/ -->
  <g
     id="ID0.07485470175743103"
     transform="translate(-2.6667169,-2.4862424)">
    <g
       id="ID0.8842033431865275">
      <g
         id="ID0.9813417503610253">
        <g
           id="ID0.6985900145955384">
          <path
             id="ID0.020438293926417828"
             fill="url(#grad_1)"
             d="m 83,184.5 c -3.49,4.157 -4.43,8.884 -3.538,14.175 0.726,4.298 7.75,6.117 7.949,0.672 0.067,-1.862 0.046,-3.741 -0.034,-5.602 -0.198,-4.579 -4.116,2.843 -4.252,4.821 -0.387,5.615 -0.505,11.953 4.542,15.601 0.01,-0.113 0.014,-0.228 0.013,-0.342 0.017,-1.154 0.109,-1.99 0.654,-2.992 0.5,-0.919 -0.73,-4.451 0,-5 -8.636,6.488 -4.93,22.308 1.333,29 -0.813,-0.869 0.849,-4.093 0,-5 -5.466,-5.84 -8.514,-13.605 -1.333,-19 0,-1.667 0,-3.333 0,-5 -0.519,0.954 -0.653,1.888 -0.669,2.967 -0.007,0.483 -2.278,-1.752 -2.315,-1.797 -0.714,-0.849 -1.141,-1.913 -1.559,-2.923 -0.891,-2.149 -0.589,-1.76 0.259,-3.83 0.435,-1.062 1.232,-1.894 2.018,-2.697 1.551,-1.586 1.28,0.633 1.33,1.794 0.002,-1.638 0.004,-3.274 0.007,-4.911 -0.252,3.105 -2.755,4.099 -5.404,2.731 -1.354,-0.699 -2.123,-2.095 -2.538,-3.492 0.727,2.449 -0.082,1.943 0.699,0.002 0.628,-1.563 1.771,-2.904 2.839,-4.177 0.835,-0.996 -0.806,-4.041 -0.001,-5 z"
             transform="rotate(1.1203744,4922.5442,-2352.1205)"
             style="fill:url(#grad_1)" />
        </g>
      </g>
      <path
         id="ID0.444075814448297"
         fill="none"
         stroke="#007fdf"
         stroke-width="2"
         stroke-linecap="round"
         d="m 212.6,211.6 c 0,0 0.109,3.016 -0.1,4.5 -0.096,0.68 -0.8,1.9 -0.8,1.9"
         transform="translate(-172.75,-99.75)" />
    </g>
    <path
       id="ID0.790923397988081"
       fill="url(#grad_2)"
       d="m 493.075,212.752 c -4.552,24.615 -34.956,41.056 -43.872,40.332 -9.723,-0.789 -32.514,-29 -27.963,-53.617 4.553,-24.615 24.324,-41.597 44.16,-37.929 19.836,3.668 32.227,26.599 27.675,51.214 z"
       transform="rotate(-2.6601275,-3163.8029,9127.9636)"
       style="fill:url(#grad_2)" />
  </g>
</svg>

<svg version="1.1" width="79" height="140" xmlns="http://www.w3.org/2000/svg" xmlns:xlink="http://www.w3.org/1999/xlink">
  <defs>
    <radialGradient id="grad_1" cx="0.25579999999999997" cy="0.2571" r="0.96746">
      <stop offset="0" stop-color="#0033CC" stop-opacity="1"/>
      <stop offset="1" stop-color="#00FFFF" stop-opacity="1"/>
    </radialGradient>
    <radialGradient id="grad_2" cx="0.6984" cy="0.2671" r="0.95277">
      <stop offset="0" stop-color="#00FFFF" stop-opacity="1"/>
      <stop offset="1" stop-color="#0033CC" stop-opacity="1"/>
    </radialGradient>
  </defs>
  <!-- Exported by Scratch - http://scratch.mit.edu/ -->
  <g id="ID0.07485470175743103">
    <g id="ID0.8842033431865275">
      <g id="ID0.9813417503610253">
        <g id="ID0.6985900145955384">
          <path id="ID0.020438293926417828" fill="url(#grad_1)" d="M 83 184.500 C 79.510 188.657 78.570 193.384 79.462 198.675 C 80.188 202.973 87.212 204.792 87.411 199.347 C 87.478 197.485 87.457 195.606 87.377 193.745 C 87.179 189.166 83.261 196.588 83.125 198.566 C 82.738 204.181 82.620 210.519 87.667 214.167 C 87.677 214.054 87.681 213.939 87.680 213.825 C 87.697 212.671 87.789 211.835 88.334 210.833 C 88.834 209.914 87.604 206.382 88.334 205.833 C 79.698 212.321 83.404 228.141 89.667 234.833 C 88.854 233.964 90.516 230.740 89.667 229.833 C 84.201 223.993 81.153 216.228 88.334 210.833 C 88.334 209.166 88.334 207.500 88.334 205.833 C 87.815 206.787 87.681 207.721 87.665 208.800 C 87.658 209.283 85.387 207.048 85.350 207.003 C 84.636 206.154 84.209 205.090 83.791 204.080 C 82.900 201.931 83.202 202.320 84.050 200.250 C 84.485 199.188 85.282 198.356 86.068 197.553 C 87.619 195.967 87.348 198.186 87.398 199.347 C 87.400 197.709 87.402 196.073 87.405 194.436 C 87.153 197.541 84.650 198.535 82.001 197.167 C 80.647 196.468 79.878 195.072 79.463 193.675 C 80.190 196.124 79.381 195.618 80.162 193.677 C 80.790 192.114 81.933 190.773 83.001 189.500 C 83.836 188.504 82.195 185.459 83 184.500 L 83 184.500 Z " transform="matrix(0.9998088479042053, 0.01955297589302063, -0.01955297589302063, 0.9998088479042053, -45.05, -96.7)"/>
        </g>
      </g>
      <path id="ID0.444075814448297" fill="none" stroke="#007FDF" stroke-width="2" stroke-linecap="round" d="M 212.600 211.600 C 212.600 211.600 212.709 214.616 212.500 216.100 C 212.404 216.780 211.700 218 211.700 218 " transform="matrix(1, 0, 0, 1, -172.75, -99.75)"/>
    </g>
    <path id="ID0.790923397988081" fill="url(#grad_2)" d="M 493.075 212.752 C 488.523 237.367 458.119 253.808 449.203 253.084 C 439.480 252.295 416.689 224.084 421.240 199.467 C 425.793 174.852 445.564 157.870 465.400 161.538 C 485.236 165.206 497.627 188.137 493.075 212.752 Z " transform="matrix(0.9989224076271057, -0.04641130566596985, 0.04641130566596985, 0.9989224076271057, -427.05, -137)"/>
  </g>
</svg>
